public/partner-3.svg

<svg width="60" height="60" viewBox="0 0 60 60" fill="none" xmlns="http://www.w3.org/2000/svg">
<path d="M58.4542 39.6156C57.3273 38.2383 55.4742 37.7625 53.8465 38.4637L38.9967 44.6991C38.3707 44.9495 38.0952 45.6507 38.3457 46.2767C38.5961 46.9028 39.3223 47.1782 39.9233 46.9278L54.7981 40.6924C55.4241 40.417 56.1503 40.6173 56.6011 41.1432C56.8765 41.4938 56.9767 41.9195 56.9266 42.3452C56.8515 42.7709 56.6261 43.1465 56.2505 43.3969C49.7647 47.629 35.0151 55.9929 34.3139 56.3686C34.2889 56.3936 34.2639 56.3936 34.2388 56.4186C32.4609 57.4954 30.4325 57.7709 27.9033 57.3201C27.753 57.2951 25.2488 56.9946 16.2088 55.8928L12.0018 55.3669V39.1148C12.6528 39.0647 13.2538 39.0397 13.5293 39.0397H13.6796C19.2889 38.6891 24.6478 39.7659 30.3073 40.9178C31.0335 41.0681 31.7597 41.2183 32.4859 41.3686C33.2622 41.5188 33.8131 42.1949 33.8131 42.9963C33.8131 43.0464 33.8131 43.0964 33.7881 43.1966C33.738 43.6474 33.4876 43.9729 33.3123 44.1732C33.0118 44.4737 32.5861 44.649 32.1353 44.649H20.8165C20.1403 44.649 19.6144 45.1999 19.6144 45.851C19.6144 46.5272 20.1654 47.053 20.8165 47.053H32.1604C33.2372 47.053 34.2889 46.6273 35.0402 45.851C35.6912 45.1999 36.0919 44.3736 36.1921 43.5221C36.2171 43.3469 36.2422 43.1716 36.2422 42.9963C36.2422 41.0681 34.8649 39.3903 32.9617 39.0146C32.2355 38.8644 31.5093 38.7141 30.7831 38.5889C25.1988 37.462 19.4392 36.2851 13.5293 36.6858H13.4041C13.1286 36.6858 12.5777 36.7358 11.9266 36.7609C11.7764 36.26 11.3507 35.8594 10.7747 35.8594H1.83482C1.15869 35.8594 0.632812 36.4103 0.632812 37.0614V57.3201C0.632812 57.9963 1.18373 58.5221 1.83482 58.5221H10.7998C11.2756 58.5221 11.7013 58.2467 11.8766 57.821L15.9083 58.3218C20.6662 58.8978 27.2021 59.6991 27.4776 59.7492C28.3791 59.8994 29.2305 59.9996 30.0318 59.9996C32.0101 59.9996 33.7881 59.5238 35.4158 58.5722C35.4408 58.5722 35.4408 58.5472 35.4659 58.5472C35.6161 58.4721 50.8916 49.8327 57.5527 45.4754C58.4792 44.8744 59.1303 43.8727 59.3056 42.7709C59.4558 41.619 59.1553 40.4921 58.4542 39.6156ZM9.57271 56.0681H3.03682V38.2383H9.57271V56.0681Z" fill="#E5E7E8"/>
<path d="M20.2902 17.1035C20.3403 17.1285 20.4154 17.1285 20.5156 17.1536C20.9413 17.2287 21.3419 17.3038 21.7676 17.379C21.8678 17.404 21.968 17.429 22.0681 17.429C22.1683 18.5559 22.3937 19.6578 22.7693 20.7095C22.569 20.8598 22.3686 20.985 22.1683 21.1352L21.5673 21.5359C21.4671 21.611 21.392 21.6611 21.3419 21.7112C20.8912 22.0618 20.7409 22.6628 20.9663 23.1886C21.7176 24.7663 22.7192 26.2187 23.9463 27.4958C24.3469 27.9215 24.998 27.9967 25.4738 27.6711L25.5489 27.621C25.8745 27.3706 26.2251 27.1452 26.5506 26.9199C26.6508 26.8447 26.776 26.7696 26.8762 26.6945C27.7276 27.4207 28.6541 28.0217 29.6558 28.4975C29.6057 28.6978 29.5807 28.9232 29.5306 29.1235C29.4805 29.4491 29.4054 29.7746 29.3553 30.1002C29.3553 30.1252 29.3302 30.1753 29.3302 30.2003C29.2301 30.7763 29.5807 31.3272 30.1065 31.5275C30.9079 31.828 31.7593 32.0534 32.6107 32.2037C33.4621 32.3539 34.3386 32.4541 35.19 32.4791H35.2151C35.791 32.4791 36.2668 32.0785 36.392 31.5275C36.392 31.5025 36.4171 31.4524 36.4171 31.4274C36.4671 31.1018 36.5423 30.7763 36.5923 30.4508C36.6424 30.2504 36.6675 30.0501 36.7176 29.8247C37.8194 29.7245 38.9212 29.4992 39.973 29.1486C40.0481 29.2487 40.1232 29.374 40.1984 29.4741C40.4237 29.7997 40.6742 30.1502 40.8745 30.4758C40.8995 30.5008 40.9496 30.576 40.9747 30.601C41.3252 31.0518 41.9262 31.202 42.4521 30.9766C44.0548 30.2254 45.5072 29.2487 46.7843 28.0217C47.21 27.621 47.2852 26.995 46.9847 26.5192C46.9346 26.4441 46.8845 26.3689 46.8344 26.2688L46.4338 25.6928C46.2835 25.4925 46.1583 25.2671 46.008 25.0668C46.7343 24.2154 47.3603 23.2638 47.8361 22.2621C47.9363 22.2871 48.0364 22.3122 48.1366 22.3122C48.5623 22.3873 48.963 22.4624 49.3887 22.5626C49.4638 22.5876 49.5389 22.5876 49.6141 22.5876C50.165 22.6377 50.6658 22.3122 50.8661 21.7863C51.1666 20.9599 51.392 20.1085 51.5673 19.2321C51.7426 18.3556 51.8177 17.4791 51.8428 16.6027C51.8678 16.0267 51.4671 15.5259 50.9162 15.4007C50.8912 15.4007 50.8411 15.3756 50.8161 15.3756L50.2401 15.2755C49.8895 15.2003 49.5389 15.1503 49.1883 15.0751C49.0882 13.9733 48.8628 12.8965 48.5122 11.8447C48.963 11.5192 49.4388 11.2187 49.9146 10.8932C50.4154 10.5676 50.5907 9.91653 50.3403 9.36561C49.589 7.76294 48.5873 6.28548 47.3603 5.00835C46.9596 4.58264 46.2835 4.50751 45.8077 4.8581C45.5322 5.05843 45.2318 5.25876 44.9563 5.43406C44.781 5.55927 44.5807 5.68447 44.4054 5.80968C43.554 5.08347 42.6274 4.48247 41.6257 4.00668C41.6257 3.95659 41.6508 3.93155 41.6508 3.88147L41.7009 3.60601C41.7009 3.58097 41.7259 3.55593 41.7259 3.50584L41.801 3.13022C41.8511 2.8798 41.9012 2.62938 41.9513 2.30384C42.0514 1.72788 41.7259 1.15192 41.175 0.951586C40.3737 0.651085 39.5222 0.42571 38.6708 0.275459C37.8194 0.125209 36.9429 0.0250417 36.0915 0C35.4905 0 34.9646 0.425709 34.8645 1.05175C34.8144 1.30217 34.7643 1.57763 34.7142 1.82805L34.6391 2.17863C34.6391 2.20367 34.6391 2.25376 34.6141 2.2788L34.564 2.55426C34.564 2.60434 34.5389 2.62938 34.5389 2.67947C33.4371 2.77963 32.3353 3.00501 31.2835 3.35559C31.1583 3.1803 31.0331 2.97997 30.9079 2.80467C30.7075 2.52922 30.5072 2.22871 30.3319 1.95326C30.0064 1.45242 29.3553 1.27713 28.8294 1.52755C27.2267 2.2788 25.7493 3.28047 24.4721 4.50751C24.0464 4.90818 23.9713 5.58431 24.3219 6.08514C24.6474 6.53589 24.973 7.01169 25.2735 7.46244C24.5473 8.31386 23.9463 9.2404 23.4705 10.2421C23.1199 10.1669 22.7693 10.1169 22.4187 10.0417L21.7426 9.96661C21.1666 9.86644 20.6157 10.192 20.4154 10.7429C20.1149 11.5693 19.8895 12.4207 19.7142 13.2972C19.564 14.1736 19.4638 15.0501 19.4388 15.9265C19.4137 16.4775 19.7643 16.9533 20.2902 17.1035ZM22.0681 13.7479C22.1433 13.3472 22.2434 12.9215 22.3436 12.5209C22.7693 12.596 23.195 12.6711 23.6207 12.7713C23.8461 12.8214 24.0214 12.8464 24.2217 12.8214C24.6725 12.7963 25.0731 12.4958 25.2484 12.0701C25.7994 10.7179 26.5757 9.51586 27.6024 8.46411C27.9279 8.11352 28.0281 7.61269 27.8528 7.18698C27.7777 6.98664 27.6524 6.81135 27.5272 6.61102L27.3019 6.28548C27.1516 6.0601 27.0014 5.83472 26.8511 5.60935C27.4772 5.08347 28.1783 4.60768 28.9045 4.20701C29.155 4.5576 29.4054 4.93322 29.6558 5.30885C29.806 5.53422 29.9563 5.70952 30.1566 5.83472C30.5072 6.0601 30.9329 6.11018 31.3085 5.95993C32.6608 5.38397 34.0631 5.10851 35.5156 5.08347C35.9663 5.08347 36.392 4.80801 36.5923 4.40734C36.6675 4.25709 36.7176 4.0818 36.7426 3.88147C36.7927 3.60601 36.8428 3.33055 36.8929 3.05509L36.968 2.67947C36.968 2.65442 36.968 2.60434 36.993 2.5793V2.52922C37.3937 2.5793 37.7693 2.62938 38.17 2.70451C38.5706 2.77963 38.9463 2.85476 39.3219 2.97997V3.03005C39.3219 3.05509 39.2969 3.08013 39.2969 3.13022L39.2217 3.50584C39.1716 3.7813 39.1216 4.05676 39.0715 4.33222C39.0214 4.50751 39.0214 4.68281 39.0214 4.8581C39.0464 5.30885 39.3469 5.70952 39.7727 5.88481C41.1249 6.41068 42.3519 7.21202 43.3787 8.21369C43.6792 8.48915 44.1049 8.61436 44.4805 8.51419C44.7059 8.46411 44.9312 8.36394 45.1316 8.18865C45.4822 7.93823 45.8578 7.68781 46.2084 7.4374C46.7343 8.06344 47.21 8.76461 47.6107 9.46578C47.3603 9.64107 47.1349 9.79132 46.8845 9.96661L46.6341 10.1419C46.4338 10.2671 46.2585 10.3923 46.1082 10.5676C45.7827 10.9182 45.6825 11.419 45.8828 11.8698C46.4588 13.222 46.7593 14.6244 46.7843 16.0768C46.7843 16.5275 47.0598 16.9533 47.4605 17.1536C47.6358 17.2287 47.8361 17.3038 48.0364 17.3289C48.4621 17.404 48.8878 17.4791 49.3136 17.5543C49.2635 17.98 49.2134 18.3806 49.1383 18.7813C49.0631 19.182 48.963 19.5826 48.8628 19.9833C48.7626 19.9583 48.6374 19.9332 48.5373 19.9332C48.1616 19.8581 47.786 19.783 47.3853 19.7078C47.3603 19.7078 47.2351 19.6828 47.21 19.6828C46.6591 19.6077 46.1583 19.9332 45.958 20.4341C45.407 21.8114 44.6057 23.0384 43.554 24.0902C43.2034 24.4407 43.1032 24.9666 43.3035 25.4174C43.3536 25.5426 43.4287 25.6678 43.5039 25.7679C43.7793 26.1436 44.0297 26.5192 44.3052 26.9199C43.6792 27.4457 43.003 27.8965 42.3019 28.2972C42.2518 28.222 42.2017 28.1469 42.1516 28.0718C41.9262 27.7462 41.7259 27.4457 41.5005 27.1202C41.4254 26.995 41.3252 26.8698 41.2251 26.7947C40.8745 26.4691 40.3737 26.3689 39.9229 26.5442C38.5706 27.1202 37.1433 27.4207 35.6658 27.4207C35.19 27.4207 34.7643 27.6962 34.589 28.1219C34.5139 28.2721 34.4638 28.4474 34.4388 28.6477C34.3636 29.0985 34.2885 29.5242 34.2134 29.9499C33.8127 29.8998 33.4371 29.8497 33.0364 29.7746C32.6358 29.6995 32.2601 29.6244 31.8845 29.4992C31.9596 29.0484 32.0348 28.6227 32.1349 28.172C32.185 27.9967 32.185 27.8214 32.185 27.6461C32.16 27.1703 31.8595 26.7696 31.4338 26.5943C30.0815 26.0434 28.8545 25.2671 27.8027 24.2404C27.4521 23.9149 26.9513 23.8147 26.5005 23.99C26.3753 24.0401 26.2501 24.1152 26.1249 24.2154C25.8244 24.4407 25.4989 24.6661 25.1733 24.8664C25.0982 24.9165 25.0231 24.9666 24.9479 25.0167C24.4221 24.3906 23.9713 23.7145 23.5706 23.0134C23.9463 22.7379 24.3469 22.4875 24.7226 22.2371C24.8478 22.1619 24.9479 22.0618 25.0481 21.9866C25.3987 21.6361 25.4989 21.1102 25.2985 20.6594C24.7226 19.3072 24.397 17.8548 24.397 16.3773C24.397 15.8264 24.0214 15.3506 23.4955 15.2254C23.4705 15.2254 23.3453 15.2003 23.3202 15.1753C22.9446 15.1002 22.5439 15.025 22.1683 14.9499C22.0681 14.9249 21.9429 14.8998 21.8428 14.8998C21.9429 14.5492 21.993 14.1486 22.0681 13.7479Z" fill="#E5E7E8"/>
<path d="M30.4097 21.3114C31.186 22.1127 32.1376 22.7388 33.1893 23.1144C33.5399 23.2396 33.9155 23.3398 34.3162 23.4149C34.6918 23.49 35.0925 23.5401 35.4681 23.5401C35.5182 23.5401 35.5933 23.5401 35.6685 23.5401C36.7202 23.5401 37.772 23.3147 38.7236 22.864C39.4498 22.5384 40.1009 22.0877 40.6518 21.5368C41.4781 20.7605 42.1042 19.8089 42.4798 18.7571C42.605 18.3815 42.7052 18.0059 42.7803 17.6303C42.8554 17.2296 42.9055 16.854 42.9055 16.4533C42.9306 15.3515 42.7052 14.2246 42.2294 13.2229C41.9039 12.4967 41.4531 11.8456 40.9022 11.2697C40.1259 10.4683 39.1743 9.84228 38.1226 9.46665C37.772 9.34144 37.3963 9.24127 36.9957 9.16615C36.62 9.09102 36.2194 9.06598 35.8438 9.04094C34.7419 9.0159 33.615 9.24127 32.6134 9.71707C31.8872 10.0426 31.2361 10.4934 30.6601 11.0443C29.8588 11.8206 29.2327 12.7722 28.8571 13.8239C28.7319 14.1995 28.6067 14.5752 28.5566 14.9758C28.4815 15.3515 28.4314 15.7521 28.4314 16.1528C28.4064 17.2797 28.6568 18.4065 29.1326 19.4082C29.408 20.0843 29.8588 20.7354 30.4097 21.3114ZM30.8855 15.4015C30.9356 15.1511 31.0107 14.8757 31.0858 14.6252C31.3362 13.9241 31.7619 13.298 32.2878 12.7722C32.6635 12.3965 33.1142 12.096 33.59 11.8707C34.216 11.5702 34.9172 11.4199 35.6184 11.4199C35.6685 11.4199 35.6935 11.4199 35.7436 11.4199C35.994 11.4199 36.2695 11.4449 36.5199 11.495C36.7703 11.5451 37.0207 11.6202 37.2711 11.6954C37.9723 11.9458 38.5983 12.3464 39.1242 12.8974C39.4998 13.273 39.8003 13.7237 40.0257 14.1995C40.3513 14.8757 40.5015 15.6269 40.4765 16.3531C40.4765 16.6035 40.4514 16.879 40.4014 17.1545C40.3513 17.4049 40.2761 17.6803 40.201 17.9057C39.9506 18.6069 39.5249 19.258 38.974 19.7588C38.5983 20.1094 38.1476 20.4099 37.6718 20.6353C36.9957 20.9608 36.2444 21.1111 35.5182 21.086C35.2678 21.086 35.0174 21.061 34.7419 21.0109C34.4915 20.9608 34.2411 20.8857 33.9907 20.8106C33.2895 20.5601 32.6635 20.1344 32.1376 19.6086C31.762 19.2329 31.4865 18.8072 31.2611 18.3064C30.9356 17.6303 30.7853 16.879 30.8104 16.1278C30.8104 15.9274 30.8354 15.652 30.8855 15.4015Z" fill="#E5E7E8"/>
</svg>

<svg width="60" height="60" fill="none" xmlns="http://www.w3.org/2000/svg"><path d="M58.454 39.616c-1.127-1.378-2.98-1.853-4.608-1.152l-14.85 6.235c-.625.25-.9.952-.65 1.578.25.626.976.901 1.577.65l14.875-6.235c.626-.275 1.352-.075 1.803.451.276.35.376.776.326 1.202-.075.426-.3.802-.676 1.052-6.486 4.232-21.236 12.596-21.937 12.972-.025.025-.05.025-.075.05-1.778 1.076-3.806 1.352-6.336.901-.15-.025-2.654-.325-11.694-1.427l-4.207-.526V39.115c.65-.05 1.252-.075 1.527-.075h.15c5.61-.35 10.969.726 16.628 1.878l2.179.45c.776.15 1.327.827 1.327 1.628 0 .05 0 .1-.025.2-.05.451-.3.777-.476.977-.3.3-.726.476-1.177.476H20.817a1.202 1.202 0 0 0 0 2.404H32.16a4.014 4.014 0 0 0 2.88-1.202 3.97 3.97 0 0 0 1.152-2.329c.025-.175.05-.35.05-.526a4.073 4.073 0 0 0-3.28-3.981c-.727-.15-1.453-.3-2.179-.426-5.584-1.127-11.344-2.304-17.254-1.903h-.125c-.275 0-.826.05-1.477.075-.15-.501-.576-.902-1.152-.902h-8.94c-.676 0-1.202.551-1.202 1.202v20.26c0 .675.55 1.201 1.202 1.201H10.8c.476 0 .901-.275 1.077-.701l4.031.5c4.758.577 11.294 1.378 11.57 1.428.901.15 1.752.25 2.554.25 1.978 0 3.756-.475 5.384-1.427.025 0 .025-.025.05-.025.15-.075 15.426-8.714 22.087-13.072a4.005 4.005 0 0 0 1.753-2.704c.15-1.152-.15-2.279-.852-3.155zM9.573 56.068H3.037v-17.83h6.536v17.83zM20.29 17.104c.05.024.125.024.226.05.425.075.826.15 1.252.225.1.025.2.05.3.05.1 1.127.326 2.229.701 3.28-.2.15-.4.276-.6.426l-.602.4c-.1.076-.175.126-.225.176a1.24 1.24 0 0 0-.376 1.478 16.367 16.367 0 0 0 2.98 4.307c.4.426 1.052.5 1.528.175l.075-.05c.326-.25.676-.476 1.002-.701.1-.075.225-.15.325-.226a12.591 12.591 0 0 0 2.78 1.803c-.05.2-.075.426-.125.627-.05.325-.126.65-.176.976 0 .025-.025.075-.025.1-.1.576.25 1.127.777 1.328.8.3 1.652.525 2.504.676.851.15 1.728.25 2.579.275h.025c.576 0 1.052-.4 1.177-.951 0-.025.025-.076.025-.1.05-.326.125-.652.175-.977.05-.2.075-.4.126-.626a14.48 14.48 0 0 0 3.255-.676c.075.1.15.225.225.325.226.326.476.676.676 1.002.026.025.076.1.1.125.351.45.952.601 1.478.376a16.007 16.007 0 0 0 4.332-2.955c.426-.401.501-1.027.2-1.503-.05-.075-.1-.15-.15-.25l-.4-.576c-.15-.2-.276-.426-.426-.626a12.853 12.853 0 0 0 1.828-2.805c.1.025.2.05.3.05.426.075.827.15 1.253.25.075.026.15.026.225.026.551.05 1.052-.276 1.252-.802.3-.826.526-1.678.701-2.554.176-.876.25-1.753.276-2.63a1.187 1.187 0 0 0-.927-1.201c-.025 0-.075-.025-.1-.025l-.576-.1c-.35-.076-.701-.126-1.052-.2a14.263 14.263 0 0 0-.676-3.231c.451-.326.927-.626 1.403-.952.5-.325.676-.976.425-1.527a16.222 16.222 0 0 0-2.98-4.358c-.4-.425-1.077-.5-1.552-.15-.276.2-.576.4-.852.576-.175.125-.375.25-.55.376a12.591 12.591 0 0 0-2.78-1.803c0-.05.025-.075.025-.126l.05-.275c0-.025.025-.05.025-.1l.075-.376c.05-.25.1-.5.15-.826a1.22 1.22 0 0 0-.776-1.352c-.801-.3-1.653-.526-2.504-.677-.852-.15-1.728-.25-2.58-.275-.6 0-1.126.426-1.227 1.052-.05.25-.1.526-.15.776l-.075.35c0 .026 0 .076-.025.1l-.05.276c0 .05-.025.075-.025.125-1.102.1-2.204.326-3.256.677-.125-.176-.25-.376-.375-.551-.2-.276-.4-.576-.576-.852a1.191 1.191 0 0 0-1.503-.425 16.221 16.221 0 0 0-4.357 2.98c-.426.4-.5 1.076-.15 1.577.325.45.651.927.951 1.377a12.592 12.592 0 0 0-1.802 2.78c-.351-.075-.702-.125-1.052-.2l-.676-.075a1.19 1.19 0 0 0-1.328.776c-.3.826-.525 1.678-.7 2.554-.151.877-.251 1.753-.276 2.63a1.16 1.16 0 0 0 .851 1.177zm1.778-3.356c.075-.4.175-.826.276-1.227.425.075.851.15 1.277.25.225.05.4.075.6.05.451-.025.852-.325 1.027-.75a11.093 11.093 0 0 1 2.354-3.607 1.21 1.21 0 0 0 .25-1.277c-.074-.2-.2-.376-.325-.576l-.225-.326-.45-.676a12.923 12.923 0 0 1 2.052-1.402c.251.35.501.726.752 1.102.15.225.3.4.5.526.351.225.777.275 1.152.125a11.102 11.102 0 0 1 4.208-.877c.45 0 .876-.275 1.076-.676.075-.15.126-.325.15-.526l.15-.826.076-.376c0-.025 0-.075.025-.1v-.05c.4.05.776.1 1.177.176.4.075.776.15 1.152.275v.05c0 .025-.025.05-.025.1l-.075.376-.15.826c-.05.176-.05.35-.05.526a1.2 1.2 0 0 0 .75 1.027 10.767 10.767 0 0 1 3.607 2.329c.3.275.726.4 1.102.3.225-.05.45-.15.65-.325.351-.25.727-.501 1.077-.752a13.938 13.938 0 0 1 1.403 2.029c-.25.175-.476.325-.726.5l-.25.176c-.201.125-.377.25-.527.426-.325.35-.425.851-.225 1.302.576 1.352.876 2.754.901 4.207 0 .45.276.876.677 1.077.175.075.375.15.575.175l1.278.225c-.05.426-.1.827-.176 1.227-.075.401-.175.802-.275 1.202-.1-.025-.226-.05-.326-.05-.375-.075-.751-.15-1.152-.225-.025 0-.15-.025-.175-.025-.55-.075-1.052.25-1.252.751a10.799 10.799 0 0 1-2.404 3.656c-.35.35-.45.877-.25 1.327.05.126.125.25.2.35.275.377.526.752.801 1.153-.626.526-1.302.976-2.003 1.377l-.15-.225c-.226-.326-.426-.626-.651-.952a1.186 1.186 0 0 0-.276-.325 1.243 1.243 0 0 0-1.302-.25c-1.352.575-2.78.876-4.257.876-.476 0-.902.275-1.077.7-.075.151-.125.326-.15.527-.075.45-.15.876-.226 1.302-.4-.05-.776-.1-1.177-.175-.4-.075-.776-.15-1.152-.276.076-.45.15-.876.25-1.327.051-.175.051-.35.051-.526a1.206 1.206 0 0 0-.751-1.052 11.198 11.198 0 0 1-3.631-2.354 1.243 1.243 0 0 0-1.303-.25c-.125.05-.25.125-.375.225-.3.226-.626.451-.952.651l-.225.15a13.56 13.56 0 0 1-1.377-2.003c.375-.275.776-.526 1.152-.776.125-.075.225-.175.325-.25.35-.35.45-.877.25-1.328-.575-1.352-.901-2.804-.901-4.282 0-.55-.376-1.026-.901-1.152a.466.466 0 0 1-.176-.05c-.375-.075-.776-.15-1.152-.225-.1-.025-.225-.05-.325-.05.1-.35.15-.751.225-1.152z" fill="#E5E7E8"/><path d="M30.41 21.311a7.312 7.312 0 0 0 2.78 1.803c.35.126.726.226 1.126.3.376.076.776.126 1.152.126h.2a7.155 7.155 0 0 0 3.056-.676 6.462 6.462 0 0 0 1.928-1.327 7.087 7.087 0 0 0 1.828-2.78c.125-.376.225-.751.3-1.127.075-.4.126-.776.126-1.177a7.204 7.204 0 0 0-.677-3.23 6.912 6.912 0 0 0-1.327-1.953 7.311 7.311 0 0 0-2.78-1.803 7.406 7.406 0 0 0-1.126-.3c-.376-.076-.777-.101-1.152-.126a7.204 7.204 0 0 0-3.23.676 6.915 6.915 0 0 0-1.954 1.327 7.312 7.312 0 0 0-1.803 2.78c-.125.376-.25.751-.3 1.152a6.053 6.053 0 0 0-.126 1.177 7.261 7.261 0 0 0 .702 3.255c.275.676.726 1.327 1.277 1.903zm.476-5.91c.05-.25.125-.525.2-.776a5.041 5.041 0 0 1 1.202-1.853 4.663 4.663 0 0 1 1.302-.901c.626-.3 1.327-.451 2.028-.451h.126c.25 0 .526.025.776.075.25.05.5.125.751.2.701.25 1.327.651 1.853 1.202.376.376.676.827.902 1.303.325.676.475 1.427.45 2.153 0 .25-.025.526-.075.801-.05.25-.125.526-.2.752a4.626 4.626 0 0 1-1.227 1.853 5.17 5.17 0 0 1-1.302.876 4.632 4.632 0 0 1-2.154.451c-.25 0-.5-.025-.776-.075-.25-.05-.5-.125-.751-.2a5.044 5.044 0 0 1-1.853-1.202 4.26 4.26 0 0 1-.877-1.303 4.669 4.669 0 0 1-.45-2.178c0-.2.024-.476.075-.726z" fill="#E5E7E8"/></svg>
